__todo__/qualcomm.svg

<svg height="95" preserveAspectRatio="xMidYMid" viewBox="0 0 512 95" width="512" xmlns="http://www.w3.org/2000/svg"><path d="m138.191024 26.9848192c1.372109 0 2.548203 1.1107553 2.548203 2.5482033v48.6772163c0 1.3721095-1.241433 2.4828648-2.548203 2.4828648h-6.599194c-1.241432 0-2.482864-.9800782-2.482864-2.3521877v-4.5083596c-3.332266 4.9003909-9.082058 8.2979953-17.445392 8.2979953-13.9824486 0-22.6071366-9.2780735-22.6071366-23.0645066v-29.6636996c0-1.3721094 1.2414323-2.4828647 2.5482032-2.4828647h6.5991931c1.3721095 0 2.4828643 1.1107553 2.4828643 2.4828647v27.7688818c0 8.9513807 4.704376 14.8971884 13.982449 14.8971884 9.082058 0 14.439819-6.1418233 14.439819-14.7665113v-27.8995589c0-1.3721094 1.241432-2.4828647 2.482864-2.4828647h6.599194m-97.3544331-26.9194807c-22.6071367 0-40.8365909 17.5760687-40.8365909 41.0326065 0 23.5218763 18.2294542 41.0326065 40.8365909 41.0326065 3.8549741 0 7.5792712-.5227084 11.1075527-1.5027865l4.4430211 11.4342454c.4573698 1.2414324 1.3721094 2.0254949 3.0055731 2.0254949h7.0565629c1.6988021 0 2.9402345-1.1107553 2.156172-3.2669273l-5.749792-14.9625268c11.3035683-7.1219015 18.817501-19.7322408 18.817501-34.8254447 0-23.3911993-18.2294541-40.967268-40.8365908-40.967268m17.7720843 64.8811756-5.1617451-13.3944018c-.4573698-1.1107553-1.3721094-2.156172-3.3322658-2.156172h-6.7298702c-1.6988021 0-3.005573 1.1107552-2.2215105 3.2669272l6.7952087 17.5760687c-2.2215105.588047-4.6390367.8494011-7.1219014.8494011-16.530652 0-28.2915902-13.0023705-28.2915902-29.9903923s11.7609382-29.9903923 28.2915902-29.9903923 28.2915901 13.0023705 28.2915901 29.9903923c0 9.9314589-3.9856512 18.4254698-10.5195058 23.8485691m453.1881508 13.0677091c.588047 1.3721094-.130677 2.6788803-1.764141 2.6788803h-7.383255c-1.37211 0-2.482865-.6533854-2.940235-2.0254949l-13.655756-36.7202625-13.851771 36.7202625c-.588047 1.437448-1.568126 2.0254949-2.940235 2.0254949h-6.599193c-1.37211 0-2.352188-.5880469-2.940235-2.0254949l-13.982448-36.9162781-13.786433 36.9162781c-.588047 1.3721095-1.568126 2.0254949-2.940235 2.0254949h-6.925886c-1.372109 0-2.352187-.6533854-2.940234-2.0254949l-13.655756-36.9162781-14.113126 36.9162781c-.588047 1.437448-1.568125 2.0254949-2.940235 2.0254949h-6.599193c-1.372109 0-2.352187-.5880469-2.940234-2.0254949l-13.786433-36.9162781-13.786433 36.9162781c-.45737 1.3721095-1.568126 2.0254949-2.940235 2.0254949h-7.18724c-1.698802 0-2.352188-1.3721094-1.764141-2.6788803l18.686824-48.873232c.588047-1.437448 1.568125-2.156172 2.940235-2.156172h8.036641c1.372109 0 2.352188.6533855 2.940234 2.156172l13.459741 35.6748458 13.329063-35.6748458c.588047-1.437448 1.568125-2.156172 2.940235-2.156172h7.905964c1.372109 0 2.352187.6533855 2.940234 2.156172l13.198386 35.6748458 13.198386-35.6748458c.588047-1.437448 1.568126-2.156172 2.940235-2.156172h7.971303c1.372109 0 2.352187.6533855 2.940234 2.156172l13.394402 35.6748458 13.067709-35.6748458c.588047-1.437448 1.568125-2.156172 2.940235-2.156172h8.036641c1.372109 0 2.352187.6533855 2.940234 2.156172zm-309.639367-50.9640655h-6.599193c-1.372109 0-2.548203 1.1107553-2.548203 2.5482033v4.4430211c-3.332266-5.031068-9.86612-8.624688-17.576069-8.624688-14.570495 0-27.050157 11.499584-27.050157 28.2915902 0 16.9880218 12.545 28.4222672 26.984819 28.4222672 7.840625 0 14.178464-3.59362 17.706746-8.624688v4.7043753c0 1.3721094 1.241432 2.4828647 2.548203 2.4828647h6.599193c1.372109 0 2.482865-1.1107553 2.482865-2.4828647v-48.6118778c-.065339-1.437448-1.176094-2.5482033-2.548204-2.5482033m-25.482032 44.3648724c-9.604766 0-16.465314-7.8406255-16.465314-17.5760687 0-9.8661204 6.795209-17.4453917 16.465314-17.4453917 9.539427 0 16.465313 7.5792713 16.465313 17.4453917-.065338 9.8007818-6.991224 17.5760687-16.465313 17.5760687m104.21498 1.6988021c1.437448 1.7641408.196015 3.1362502-.588047 3.7242971-4.573698 3.4629429-10.650183 5.3577608-17.249376 5.3577608-16.661329 0-27.768882-12.218308-27.768882-28.2915902s11.107553-28.4222672 27.768882-28.4222672c6.599193 0 12.610339 1.8948178 17.249376 5.3577607.784062.5880469 1.894818 1.7641407.588047 3.7242971l-3.136251 4.3776825c-1.241432 1.6988022-2.67888 1.2414324-3.920312.4573698-2.940235-1.7641407-6.403178-3.2669272-10.388829-3.2669272-9.735443 0-16.203959 7.8406254-16.203959 17.7720843s6.468516 17.7067458 16.203959 17.7067458c4.05099 0 7.252579-1.5681251 10.192813-3.2669273 1.241432-.6533854 2.548203-1.2414323 3.920313.5880469zm31.101147-47.566461c-15.681251 0-28.160913 12.2836465-28.160913 28.2915902 0 16.1386207 12.545001 28.2915901 28.160913 28.2915901 15.681251 0 28.161167-12.218308 28.161167-28.2915901.065085-15.9426051-12.479916-28.2915902-28.161167-28.2915902m0 45.8023203c-9.604766 0-16.465313-7.7099483-16.465313-17.4453916 0-9.8661204 6.795209-17.4453916 16.465313-17.4453916 9.604766 0 16.465314 7.5792712 16.465314 17.4453916 0 9.7354433-6.795209 17.4453916-16.465314 17.4453916m-86.704249-69.846905c1.437448 0 2.482864 1.24143236 2.482864 2.54820327v74.09391043c0 1.3721095-.980078 2.5482033-2.482864 2.5482033h-6.599194c-1.372109 0-2.548203-1.2414324-2.548203-2.5482033v-74.02857189c0-1.37210945 1.241433-2.54820327 2.548203-2.54820327h6.599194" fill="#3253dc"/></svg>

<?xml version="1.0" encoding="UTF-8"?>
<svg width="512px" height="95px" viewBox="0 0 512 95" version="1.1" xmlns="http://www.w3.org/2000/svg" preserveAspectRatio="xMidYMid">
    <title>Qualcomm</title>
    <g>
        <path d="M138.191024,26.9848192 C139.563133,26.9848192 140.739227,28.0955745 140.739227,29.5330225 L140.739227,78.2102388 C140.739227,79.5823483 139.497794,80.6931036 138.191024,80.6931036 L131.59183,80.6931036 C130.350398,80.6931036 129.108966,79.7130254 129.108966,78.3409159 L129.108966,73.8325563 C125.7767,78.7329472 120.026908,82.1305516 111.663574,82.1305516 C97.6811254,82.1305516 89.0564374,72.8524781 89.0564374,59.066045 L89.0564374,29.4023454 C89.0564374,28.030236 90.2978697,26.9194807 91.6046406,26.9194807 L98.2038337,26.9194807 C99.5759432,26.9194807 100.686698,28.030236 100.686698,29.4023454 L100.686698,57.1712272 C100.686698,66.1226079 105.391074,72.0684156 114.669147,72.0684156 C123.751205,72.0684156 129.108966,65.9265923 129.108966,57.3019043 L129.108966,29.4023454 C129.108966,28.030236 130.350398,26.9194807 131.59183,26.9194807 L138.191024,26.9194807 M40.8365909,2.13162821e-14 C18.2294542,2.13162821e-14 0,17.5760687 0,41.0326065 C0,64.5544828 18.2294542,82.065213 40.8365909,82.065213 C44.691565,82.065213 48.4158621,81.5425046 51.9441436,80.5624265 L56.3871647,91.9966719 C56.8445345,93.2381043 57.7592741,94.0221668 59.3927378,94.0221668 L66.4493007,94.0221668 C68.1481028,94.0221668 69.3895352,92.9114115 68.6054727,90.7552395 L62.8556807,75.7927127 C74.159249,68.6708112 81.6731817,56.0604719 81.6731817,40.967268 C81.6731817,17.5760687 63.4437276,2.13162821e-14 40.8365909,2.13162821e-14 M58.6086752,64.8811756 L53.4469301,51.4867738 C52.9895603,50.3760185 52.0748207,49.3306018 50.1146643,49.3306018 L43.3847941,49.3306018 C41.685992,49.3306018 40.3792211,50.441357 41.1632836,52.597529 L47.9584923,70.1735977 C45.7369818,70.7616447 43.3194556,71.0229988 40.8365909,71.0229988 C24.3059389,71.0229988 12.5450007,58.0206283 12.5450007,41.0326065 C12.5450007,24.0445847 24.3059389,11.0422142 40.8365909,11.0422142 C57.3672429,11.0422142 69.128181,24.0445847 69.128181,41.0326065 C69.128181,50.9640654 65.1425298,59.4580763 58.6086752,64.8811756 M511.796826,77.9488847 C512.384873,79.3209941 511.666149,80.627765 510.032685,80.627765 L502.64943,80.627765 C501.27732,80.627765 500.166565,79.9743796 499.709195,78.6022701 L486.053439,41.8820076 L472.201668,78.6022701 C471.613621,80.0397181 470.633542,80.627765 469.261433,80.627765 L462.66224,80.627765 C461.29013,80.627765 460.310052,80.0397181 459.722005,78.6022701 L445.739557,41.685992 L431.953124,78.6022701 C431.365077,79.9743796 430.384998,80.627765 429.012889,80.627765 L422.087003,80.627765 C420.714894,80.627765 419.734816,79.9743796 419.146769,78.6022701 L405.491013,41.685992 L391.377887,78.6022701 C390.78984,80.0397181 389.809762,80.627765 388.437652,80.627765 L381.838459,80.627765 C380.46635,80.627765 379.486272,80.0397181 378.898225,78.6022701 L365.111792,41.685992 L351.325359,78.6022701 C350.867989,79.9743796 349.757233,80.627765 348.385124,80.627765 L341.197884,80.627765 C339.499082,80.627765 338.845696,79.2556556 339.433743,77.9488847 L358.120567,29.0756527 C358.708614,27.6382047 359.688692,26.9194807 361.060802,26.9194807 L369.097443,26.9194807 C370.469552,26.9194807 371.449631,27.5728662 372.037677,29.0756527 L385.497418,64.7504985 L398.826481,29.0756527 C399.414528,27.6382047 400.394606,26.9194807 401.766716,26.9194807 L409.67268,26.9194807 C411.044789,26.9194807 412.024867,27.5728662 412.612914,29.0756527 L425.8113,64.7504985 L439.009686,29.0756527 C439.597733,27.6382047 440.577812,26.9194807 441.949921,26.9194807 L449.921224,26.9194807 C451.293333,26.9194807 452.273411,27.5728662 452.861458,29.0756527 L466.25586,64.7504985 L479.323569,29.0756527 C479.911616,27.6382047 480.891694,26.9194807 482.263804,26.9194807 L490.300445,26.9194807 C491.672554,26.9194807 492.652632,27.5728662 493.240679,29.0756527 L511.796826,77.9488847 M202.157459,26.9848192 L195.558266,26.9848192 C194.186157,26.9848192 193.010063,28.0955745 193.010063,29.5330225 L193.010063,33.9760436 C189.677797,28.9449756 183.143943,25.3513556 175.433994,25.3513556 C160.863499,25.3513556 148.383837,36.8509396 148.383837,53.6429458 C148.383837,70.6309676 160.928837,82.065213 175.368656,82.065213 C183.209281,82.065213 189.54712,78.471593 193.075402,73.440525 L193.075402,78.1449003 C193.075402,79.5170097 194.316834,80.627765 195.623605,80.627765 L202.222798,80.627765 C203.594907,80.627765 204.705663,79.5170097 204.705663,78.1449003 L204.705663,29.5330225 C204.640324,28.0955745 203.529569,26.9848192 202.157459,26.9848192 M176.675427,71.3496916 C167.070661,71.3496916 160.210113,63.5090661 160.210113,53.7736229 C160.210113,43.9075025 167.005322,36.3282312 176.675427,36.3282312 C186.214854,36.3282312 193.14074,43.9075025 193.14074,53.7736229 C193.075402,63.5744047 186.149516,71.3496916 176.675427,71.3496916 M280.890407,73.0484937 C282.327855,74.8126345 281.086422,76.1847439 280.30236,76.7727908 C275.728662,80.2357337 269.652177,82.1305516 263.052984,82.1305516 C246.391655,82.1305516 235.284102,69.9122436 235.284102,53.8389614 C235.284102,37.7656792 246.391655,25.4166942 263.052984,25.4166942 C269.652177,25.4166942 275.663323,27.311512 280.30236,30.7744549 C281.086422,31.3625018 282.197178,32.5385956 280.890407,34.498752 L277.754156,38.8764345 C276.512724,40.5752367 275.075276,40.1178669 273.833844,39.3338043 C270.893609,37.5696636 267.430666,36.0668771 263.445015,36.0668771 C253.709572,36.0668771 247.241056,43.9075025 247.241056,53.8389614 C247.241056,63.7704203 253.709572,71.5457072 263.445015,71.5457072 C267.496005,71.5457072 270.697594,69.9775821 273.637828,68.2787799 C274.87926,67.6253945 276.186031,67.0373476 277.558141,68.8668268 L280.890407,73.0484937 L280.890407,73.0484937 Z M311.991554,25.4820327 C296.310303,25.4820327 283.830641,37.7656792 283.830641,53.7736229 C283.830641,69.9122436 296.375642,82.065213 311.991554,82.065213 C327.672805,82.065213 340.152721,69.846905 340.152721,53.7736229 C340.217806,37.8310178 327.672805,25.4820327 311.991554,25.4820327 M311.991554,71.284353 C302.386788,71.284353 295.526241,63.5744047 295.526241,53.8389614 C295.526241,43.972841 302.32145,36.3935698 311.991554,36.3935698 C321.59632,36.3935698 328.456868,43.972841 328.456868,53.8389614 C328.456868,63.5744047 321.661659,71.284353 311.991554,71.284353 M225.287305,1.437448 C226.724753,1.437448 227.770169,2.67888036 227.770169,3.98565127 L227.770169,78.0795617 C227.770169,79.4516712 226.790091,80.627765 225.287305,80.627765 L218.688111,80.627765 C217.316002,80.627765 216.139908,79.3863326 216.139908,78.0795617 L216.139908,4.05098981 C216.139908,2.67888036 217.381341,1.50278654 218.688111,1.50278654 L225.287305,1.50278654" fill="#3253DC"></path>
    </g>
</svg>
